X:109
M:2/4
L:1/8
K:D
| B2 BA | FB AF | B2 BA | Be ed | 
| fe ed/e/ | fd de | fe ed/e/ | fb ba | 
fg/f/ ef | df ed | B/c/d/B/ AF | FE E2 :|| 

